svg/u1f517.svg

<svg viewBox="0 0 128 128" xmlns="http://www.w3.org/2000/svg">
  <g>
    <g>
      <path d="M23.91,104.02c-6.5-6.63-6.5-17.21,0-23.84l18.74-18.74c2.04-2.04,4.72-3.57,7.52-4.33 c2.8-0.76,5.74-0.76,8.41-0.13c2.8,0.76,5.48,2.17,7.65,4.21c0.13,0.13,0.13,0.13,0.25,0.25c6.63,6.63,6.63,17.21,0,23.84 l-18.74,18.74C41.12,110.65,30.41,110.65,23.91,104.02z M76.94,50.99c-12.36-12.36-32.63-12.36-45,0L13.33,69.73 c-12.36,12.36-12.36,32.63,0,45s32.63,12.36,45,0l18.74-18.74C89.3,83.62,89.3,63.36,76.94,50.99z" fill="#84B0C1"/>
      <path d="M66.86,48.48c3.36-1.69,6.57-0.51,6.57-0.51c-6.94-5.13-14.51-6.59-21.03-6.18 c-0.04,0.05-0.07,0.1-0.11,0.16c-2.86,4.39-3.5,10.19-1.72,15.07c2.68-0.66,5.46-0.64,8-0.03c1.04,0.28,1.83,0.55,3.39,1.28 C61.97,58.26,61.42,51.22,66.86,48.48z" fill="#2F7889"/>
      <path d="M46.76,58.46c0.13-0.97,0.19-1.95,0.25-2.93c0.28-4.22,1-8.42,2.14-12.49 c0.08-0.29,0.16-0.6,0.24-0.91c-3.09,0.49-6.12,1.43-8.97,2.83c-4.44,5.73-2.98,13.15,2.23,16.49l0,0 C43.84,60.26,45.24,59.25,46.76,58.46z" fill="#2F7889"/>
      <path d="M104.09,23.98c6.5,6.63,6.5,17.21,0,23.84L85.35,66.56c-2.04,2.04-4.72,3.57-7.52,4.33 s-5.74,0.76-8.41,0.13c-2.8-0.76-5.48-2.17-7.65-4.21c-0.13-0.13-0.13-0.13-0.25-0.25c-6.63-6.63-6.63-17.21,0-23.84l18.74-18.74 C86.88,17.35,97.59,17.35,104.09,23.98z M51.06,77.01c12.36,12.36,32.63,12.36,45,0l18.61-18.74c12.36-12.36,12.36-32.63,0-45 s-32.63-12.36-45,0L50.94,32.01C38.7,44.38,38.7,64.64,51.06,77.01z" fill="#84B0C1"/>
      <path d="M50.45,39.42c0.04-0.03,0.08-0.07,0.12-0.1c0.53-0.46,1.12-0.9,1.81-1.02 c0.69-0.12,1.5,0.19,1.74,0.85c0.18,0.49,0.02,1.03-0.15,1.52c-2.63,7.95-4.74,18.04-2.18,26.27c0.25,0.8,0.49,1.83-0.18,2.33 c-0.39,0.3-0.97,0.25-1.4,0.02c-4.7-2.54-5.52-9.42-5.74-14.14C44.21,49.19,45.86,43.45,50.45,39.42z" fill="#A8E3F0"/>
      <path d="M71.32,71.34C70.68,71.26,70,71.13,70,71.13s-0.1,4.27-3.51,7.81c-3.78,3.92-7.55,3.82-7.55,3.82 c1.99,1.15,5.96,2.34,7.4,2.68l0.15-0.15C70.32,81.45,71.92,76.29,71.32,71.34z" fill="#2F7889"/>
      <path d="M90.76,61.15l-5.33,5.33c1.33,5.94,0.97,12.18-1.09,17.94c2.59-0.92,5.08-2.19,7.4-3.8 C95.57,74.06,94.73,66.31,90.76,61.15z" fill="#2F7889"/>
    </g>
    <path d="M79.89,70.01c-0.63-1.59-1.86-3.2-3.4-3.05c-0.96,0.09-2.45,0.99-2.35,3.74 c0.07,2.13,0.88,4.21-0.28,7c-1.7,4.08-1.31,5.18-0.9,5.83c0.45,0.71,1.28,1.03,2.05,1.02c2.03-0.01,3.71-1.87,4.63-3.91 C81.13,77.38,81.22,73.35,79.89,70.01z" fill="#A8E3F0"/>
    <path d="M49.25,108.18c0.64-0.53,2.3-2.3,3.07-1.18c-0.28,3.08-2.65,5.59-5.25,7.27 c-3.2,2.07-6.99,3.29-10.8,3.18c-3.16-0.09-8.4-1.37-10.24-4.3c-1.5-2.38,1.67-2.79,3.43-2.13 C35.73,113.41,42.82,113.46,49.25,108.18z" fill="#A8E3F0"/>
  </g>
</svg>

<svg viewBox="0 0 128 128" xmlns="http://www.w3.org/2000/svg">
  <defs/>
  <path d="M23.91,104.02 C17.41,97.39 17.41,86.81 23.91,80.18 L42.65,61.44 C44.69,59.4 47.37,57.87 50.17,57.11 C52.97,56.35 55.91,56.35 58.58,56.98 C61.38,57.74 64.06,59.15 66.23,61.19 C66.36,61.32 66.36,61.32 66.48,61.44 C73.11,68.07 73.11,78.65 66.48,85.28 L47.74,104.02 C41.12,110.65 30.41,110.65 23.91,104.02 Z M76.94,50.99 C64.58,38.63 44.31,38.63 31.94,50.99 L13.33,69.73 C0.97,82.09 0.97,102.36 13.33,114.73 C25.69,127.1 45.96,127.09 58.33,114.73 L77.07,95.99 C89.3,83.62 89.3,63.36 76.94,50.99 Z" fill="#84B0C1"/>
  <path d="M66.86,48.48 C70.22,46.79 73.43,47.97 73.43,47.97 C66.49,42.84 58.92,41.38 52.4,41.79 C52.36,41.84 52.33,41.89 52.29,41.95 C49.43,46.34 48.79,52.14 50.57,57.02 C53.25,56.36 56.03,56.38 58.57,56.99 C59.61,57.27 60.4,57.54 61.96,58.27 C61.97,58.26 61.42,51.22 66.86,48.48 Z" fill="#2F7889"/>
  <path d="M46.76,58.46 C46.89,57.49 46.95,56.51 47.01,55.53 C47.29,51.31 48.01,47.11 49.15,43.04 C49.23,42.75 49.31,42.44 49.39,42.13 C46.3,42.62 43.27,43.56 40.42,44.96 C35.98,50.69 37.44,58.11 42.65,61.45 L42.65,61.45 C43.84,60.26 45.24,59.25 46.76,58.46 Z" fill="#2F7889"/>
  <path d="M104.09,23.98 C110.59,30.61 110.59,41.19 104.09,47.82 L85.35,66.56 C83.31,68.6 80.63,70.13 77.83,70.89 C75.03,71.65 72.09,71.65 69.42,71.02 C66.62,70.26 63.94,68.85 61.77,66.81 C61.64,66.68 61.64,66.68 61.52,66.56 C54.89,59.93 54.89,49.35 61.52,42.72 L80.26,23.98 C86.88,17.35 97.59,17.35 104.09,23.98 Z M51.06,77.01 C63.42,89.37 83.69,89.37 96.06,77.01 L114.67,58.27 C127.03,45.91 127.03,25.64 114.67,13.27 C102.31,0.9 82.04,0.91 69.67,13.27 L50.94,32.01 C38.7,44.38 38.7,64.64 51.06,77.01 Z" fill="#84B0C1"/>
  <path d="M50.45,39.42 C50.49,39.39 50.53,39.35 50.57,39.32 C51.1,38.86 51.69,38.42 52.38,38.3 C53.07,38.18 53.88,38.49 54.12,39.15 C54.3,39.64 54.14,40.18 53.97,40.67 C51.34,48.62 49.23,58.71 51.79,66.94 C52.04,67.74 52.28,68.77 51.61,69.27 C51.22,69.57 50.64,69.52 50.21,69.29 C45.51,66.75 44.69,59.87 44.47,55.15 C44.21,49.19 45.86,43.45 50.45,39.42 Z" fill="#A8E3F0"/>
  <path d="M71.32,71.34 C70.68,71.26 70,71.13 70,71.13 C70,71.13 69.9,75.4 66.49,78.94 C62.71,82.86 58.94,82.76 58.94,82.76 C60.93,83.91 64.9,85.1 66.34,85.44 L66.49,85.29 C70.32,81.45 71.92,76.29 71.32,71.34 Z" fill="#2F7889"/>
  <path d="M90.76,61.15 L85.43,66.48 C86.76,72.42 86.4,78.66 84.34,84.42 C86.93,83.5 89.42,82.23 91.74,80.62 C95.57,74.06 94.73,66.31 90.76,61.15 Z" fill="#2F7889"/>
  <path d="M79.89,70.01 C79.26,68.42 78.03,66.81 76.49,66.96 C75.53,67.05 74.04,67.95 74.14,70.7 C74.21,72.83 75.02,74.91 73.86,77.7 C72.16,81.78 72.55,82.88 72.96,83.53 C73.41,84.24 74.24,84.56 75.01,84.55 C77.04,84.54 78.72,82.68 79.64,80.64 C81.13,77.38 81.22,73.35 79.89,70.01 Z" fill="#A8E3F0"/>
  <path d="M49.25,108.18 C49.89,107.65 51.55,105.88 52.32,107 C52.04,110.08 49.67,112.59 47.07,114.27 C43.87,116.34 40.08,117.56 36.27,117.45 C33.11,117.36 27.87,116.08 26.03,113.15 C24.53,110.77 27.7,110.36 29.46,111.02 C35.73,113.41 42.82,113.46 49.25,108.18 Z" fill="#A8E3F0"/>
</svg>
